X:163
T:Washington's March. (p)1657.PLFD.164
M:6/4
L:1/8
Q:3/4=100
S:Playford, Dancing Master,Supplement to 3rd Ed.,1657
O:England
N:Bagpipe suits this tune.CGP.
H:1657.
Z:Chris Partington.
K:D
e4c2e4A2|e4c2e4A2|f4d2e3dc2|d2e2c2B4A2:|
|:f4e2f4B2|f4e2f4B2|e2f2c2f2d2B2|g2a2c2B4A2|
c2c4d2d4|e2e2a2e3dc2|d2e2c2B3ABc|A2A2A2A6:|
|:c2e2(f>e)g2B4|c2e2(f>e)c2A4|\
(c<A) (c<A) (c<A) (d<B) (d<B) (d<B)|c2e2fec2A4:|
|:c2e2(fg)B2d2(fg)|A2c2(ea)A2c2(ea)|A2c2(fg)B2d2(fg)|
ABcdef edcBcA|(c<A) (c<A) (c<A) (d<B) (d<B) (d<B)|c2e2fec2A4:|
